;FLAVOR:Marlin
;TIME:20843
;Filament used: 10.6997m
;Layer height: 0.2
;MINX:43.4
;MINY:47.15
;MINZ:0.1
;MAXX:156.6
;MAXY:152.85
;MAXZ:41.9
;Generated with Cura_SteamEngine 4.4.1
M140 S110
M105
M190 S110
M104 S230
M105
M109 S230
M82 ;absolute extrusion mode
G28 ;Home
G1 Z15.0 F6000 ;Move the platform down 15mm
;Prime the extruder
G92 E0
G1 F200 E3
G92 E0
G92 E0
G92 E0
G1 F2400 E-4.5
;LAYER_COUNT:210
;LAYER:0
M107
G0 F900 X48.899 Y51.609 Z0.1
;TYPE:SKIRT
G1 F2400 E0
G1 F900 X49.613 Y50.947 E0.01214
G1 X50.379 Y50.347 E0.02428
G1 X51.192 Y49.811 E0.03643
G1 X51.9 Y49.418 E0.04653
G1 X53.304 Y48.699 E0.0662
G1 X54.188 Y48.291 E0.07834
G1 X55.102 Y47.957 E0.09048
G1 X56.041 Y47.699 E0.10263
G1 X56.843 Y47.543 E0.11282
G1 X58.389 Y47.297 E0.13234
G1 X59.356 Y47.184 E0.14448
G1 X60.251 Y47.15 E0.15566
G1 X139.615 Y47.15 E1.14553
G1 X140.588 Y47.19 E1.15767
G1 X141.332 Y47.275 E1.16701
G1 X143.012 Y47.521 E1.18819
G1 X143.968 Y47.702 E1.20033
G1 X144.907 Y47.96 E1.21247
G1 X145.821 Y48.294 E1.22461
G1 X146.67 Y48.685 E1.23627
G1 X148.065 Y49.395 E1.25579
G1 X148.914 Y49.872 E1.26794
G1 X149.72 Y50.417 E1.28007
G1 X150.48 Y51.026 E1.29222
G1 X151.069 Y51.577 E1.30228
G1 X152.171 Y52.679 E1.32172
G1 X152.831 Y53.395 E1.33386
G1 X153.429 Y54.163 E1.346
G1 X153.963 Y54.977 E1.35814
G1 X154.351 Y55.679 E1.36815
G1 X155.055 Y57.061 E1.38749
G1 X155.461 Y57.946 E1.39964
G1 X155.793 Y58.861 E1.41178
G1 X156.048 Y59.8 E1.42391
G1 X156.192 Y60.536 E1.43327
G1 X156.443 Y62.078 E1.45275
G1 X156.56 Y63.045 E1.4649
G1 X156.597 Y63.981 E1.47659
G1 X156.6 Y105.399 E1.99317
G1 X156.56 Y106.372 E2.00532
G1 X156.44 Y107.338 E2.01746
G1 X156.242 Y108.291 E2.0296
G1 X155.966 Y109.224 E2.04174
G1 X155.614 Y110.132 E2.05388
G1 X155.213 Y110.959 E2.06535
G1 X155.568 Y111.674 E2.0753
G1 X155.929 Y112.578 E2.08744
G1 X156.214 Y113.509 E2.09959
G1 X156.421 Y114.46 E2.11173
G1 X156.55 Y115.425 E2.12387
G1 X156.6 Y116.51 E2.13742
G1 X156.6 Y135.999 E2.38049
G1 X156.56 Y136.972 E2.39264
G1 X156.453 Y137.858 E2.40377
G1 X156.21 Y139.388 E2.42309
G1 X156.018 Y140.342 E2.43523
G1 X155.749 Y141.277 E2.44737
G1 X155.403 Y142.187 E2.45951
G1 X155.085 Y142.871 E2.46892
G1 X154.38 Y144.267 E2.48842
G1 X153.906 Y145.117 E2.50056
G1 X153.363 Y145.925 E2.5127
G1 X152.756 Y146.687 E2.52486
G1 X152.208 Y147.278 E2.53491
G1 X151.107 Y148.386 E2.55439
G1 X150.393 Y149.047 E2.56653
G1 X149.627 Y149.648 E2.57867
G1 X148.814 Y150.184 E2.59081
G1 X148.108 Y150.577 E2.60089
G1 X146.702 Y151.298 E2.6206
G1 X145.818 Y151.707 E2.63275
G1 X144.904 Y152.041 E2.64489
G1 X143.966 Y152.299 E2.65702
G1 X143.157 Y152.457 E2.6673
G1 X141.611 Y152.703 E2.68683
G1 X140.644 Y152.816 E2.69897
G1 X139.749 Y152.85 E2.71014
G1 X60.249 Y152.85 E3.70171
G1 X59.276 Y152.81 E3.71385
G1 X58.384 Y152.702 E3.72506
G1 X56.84 Y152.456 E3.74456
G1 X55.886 Y152.264 E3.7567
G1 X54.951 Y151.994 E3.76884
G1 X54.041 Y151.648 E3.78098
G1 X53.33 Y151.315 E3.79077
G1 X51.935 Y150.605 E3.8103
G1 X51.086 Y150.128 E3.82244
G1 X50.28 Y149.583 E3.83458
G1 X49.52 Y148.974 E3.84672
G1 X48.931 Y148.423 E3.85678
G1 X47.828 Y147.32 E3.87624
G1 X47.168 Y146.604 E3.88838
G1 X46.57 Y145.836 E3.90052
G1 X46.036 Y145.022 E3.91267
G1 X45.648 Y144.32 E3.92267
G1 X44.943 Y142.936 E3.94204
G1 X44.537 Y142.051 E3.95419
G1 X44.205 Y141.136 E3.96633
G1 X43.95 Y140.196 E3.97848
G1 X43.804 Y139.449 E3.98797
G1 X43.554 Y137.903 E4.0075
G1 X43.438 Y136.936 E4.01965
G1 X43.402 Y136.011 E4.0312
G1 X43.4 Y64.289 E4.92575
G1 X43.4 Y64.001 E4.92934
G1 X43.44 Y63.029 E4.94148
G1 X43.546 Y62.146 E4.95257
G1 X43.789 Y60.613 E4.97193
G1 X43.981 Y59.658 E4.98408
G1 X44.25 Y58.723 E4.99621
G1 X44.596 Y57.813 E5.00836
G1 X44.921 Y57.114 E5.01797
G1 X45.628 Y55.718 E5.03749
G1 X46.104 Y54.868 E5.04964
G1 X46.647 Y54.061 E5.06177
G1 X47.255 Y53.3 E5.07392
G1 X47.798 Y52.716 E5.08387
G1 X48.899 Y51.609 E5.10334
G0 X49.112 Y51.82
G1 X49.817 Y51.168 E5.11532
G1 X50.575 Y50.576 E5.12731
G1 X51.378 Y50.049 E5.13929
G1 X52.036 Y49.685 E5.14867
G1 X53.44 Y48.966 E5.16835
G1 X54.313 Y48.564 E5.18033
G1 X55.217 Y48.235 E5.19233
G1 X56.144 Y47.984 E5.20431
G1 X56.89 Y47.839 E5.21379
G1 X58.436 Y47.593 E5.23331
G1 X59.391 Y47.482 E5.24531
G1 X60.251 Y47.45 E5.25604
G1 X139.615 Y47.45 E6.24591
G1 X140.575 Y47.49 E6.25789
G1 X141.288 Y47.572 E6.26685
G1 X142.968 Y47.818 E6.28802
G1 X143.913 Y47.997 E6.30002
G1 X144.839 Y48.253 E6.312
G1 X145.74 Y48.586 E6.32398
G1 X146.534 Y48.953 E6.33489
G1 X147.929 Y49.663 E6.35442
G1 X148.767 Y50.134 E6.36641
G1 X149.562 Y50.673 E6.37839
G1 X150.31 Y51.276 E6.39037
G1 X150.857 Y51.789 E6.39972
G1 X151.959 Y52.891 E6.41916
G1 X152.61 Y53.598 E6.43115
G1 X153.199 Y54.357 E6.44313
G1 X153.724 Y55.162 E6.45512
G1 X154.084 Y55.815 E6.46442
G1 X154.788 Y57.197 E6.48376
G1 X155.188 Y58.071 E6.49575
G1 X155.514 Y58.975 E6.50774
G1 X155.764 Y59.903 E6.51972
G1 X155.896 Y60.584 E6.52838
G1 X156.147 Y62.126 E6.54786
G1 X156.262 Y63.081 E6.55986
G1 X156.297 Y63.981 E6.57109
G1 X156.3 Y105.399 E7.08768
G1 X156.26 Y106.359 E7.09967
G1 X156.14 Y107.313 E7.11166
G1 X155.942 Y108.253 E7.12364
G1 X155.666 Y109.174 E7.13563
G1 X155.315 Y110.068 E7.14761
G1 X154.89 Y110.93 E7.1596
G1 X154.872 Y110.96 E7.16003
G1 X154.947 Y111.087 E7.16187
G1 X155.363 Y111.953 E7.17386
G1 X155.705 Y112.851 E7.18584
G1 X155.971 Y113.775 E7.19783
G1 X156.16 Y114.717 E7.20982
G1 X156.27 Y115.672 E7.22181
G1 X156.3 Y116.51 E7.23227
G1 X156.3 Y135.999 E7.47534
G1 X156.26 Y136.959 E7.48733
G1 X156.157 Y137.811 E7.49803
G1 X155.914 Y139.341 E7.51735
G1 X155.724 Y140.283 E7.52934
G1 X155.456 Y141.206 E7.54133
G1 X155.113 Y142.103 E7.5533
G1 X154.817 Y142.736 E7.56202
G1 X154.112 Y144.132 E7.58153
G1 X153.643 Y144.971 E7.59352
G1 X153.107 Y145.768 E7.60549
G1 X152.506 Y146.518 E7.61748
G1 X151.995 Y147.066 E7.62683
G1 X150.894 Y148.174 E7.64631
G1 X150.189 Y148.827 E7.6583
G1 X149.432 Y149.419 E7.67028
G1 X148.628 Y149.946 E7.68227
G1 X147.971 Y150.31 E7.69164
G1 X146.565 Y151.031 E7.71135
G1 X145.693 Y151.434 E7.72333
G1 X144.79 Y151.763 E7.73532
G1 X143.862 Y152.015 E7.74731
G1 X143.11 Y152.161 E7.75686
G1 X141.564 Y152.407 E7.77639
G1 X140.609 Y152.518 E7.78838
G1 X139.749 Y152.55 E7.79911
G1 X60.249 Y152.55 E8.79068
G1 X59.289 Y152.51 E8.80267
G1 X58.432 Y152.406 E8.81343
G1 X56.888 Y152.16 E8.83293
G1 X55.946 Y151.97 E8.84492
G1 X55.023 Y151.701 E8.85691
G1 X54.126 Y151.357 E8.86889
G1 X53.466 Y151.047 E8.87799
G1 X52.071 Y150.337 E8.89751
G1 X51.233 Y149.866 E8.9095
G1 X50.438 Y149.327 E8.92148
G1 X49.69 Y148.724 E8.93346
G1 X49.143 Y148.211 E8.94282
G1 X48.04 Y147.108 E8.96227
G1 X47.389 Y146.401 E8.97426
G1 X46.8 Y145.642 E8.98624
G1 X46.275 Y144.837 E8.99823
G1 X45.915 Y144.184 E9.00753
G1 X45.21 Y142.8 E9.0269
G1 X44.81 Y141.926 E9.03889
G1 X44.484 Y141.022 E9.05088
G1 X44.234 Y140.094 E9.06286
G1 X44.1 Y139.401 E9.07167
G1 X43.85 Y137.855 E9.0912
G1 X43.736 Y136.9 E9.1032
G1 X43.702 Y136.011 E9.11429
G1 X43.7 Y64.289 E10.00885
G1 X43.7 Y64.001 E10.01244
G1 X43.74 Y63.041 E10.02443
G1 X43.842 Y62.193 E10.03508
G1 X44.085 Y60.66 E10.05444
G1 X44.275 Y59.718 E10.06642
G1 X44.543 Y58.795 E10.07841
G1 X44.886 Y57.897 E10.0904
G1 X45.189 Y57.25 E10.09931
G1 X45.896 Y55.854 E10.11883
G1 X46.366 Y55.015 E10.13082
G1 X46.903 Y54.218 E10.14281
G1 X47.505 Y53.469 E10.15479
G1 X48.011 Y52.927 E10.16404
G1 X49.112 Y51.82 E10.18352
G0 X49.324 Y52.032
G1 X50.021 Y51.388 E10.19535
G1 X50.769 Y50.805 E10.20718
G1 X51.564 Y50.288 E10.21901
G1 X52.173 Y49.952 E10.22768
G1 X53.577 Y49.233 E10.24736
G1 X54.439 Y48.836 E10.2592
G1 X55.331 Y48.514 E10.27102
G1 X56.247 Y48.268 E10.28285
G1 X56.937 Y48.136 E10.29162
G1 X58.483 Y47.89 E10.31114
G1 X59.425 Y47.78 E10.32297
G1 X60.251 Y47.75 E10.33328
G1 X139.615 Y47.75 E11.32315
G1 X140.563 Y47.79 E11.33498
G1 X141.245 Y47.869 E11.34355
G1 X142.925 Y48.115 E11.36472
G1 X143.857 Y48.292 E11.37656
G1 X144.77 Y48.546 E11.38838
G1 X145.659 Y48.877 E11.40021
G1 X146.398 Y49.22 E11.41037
G1 X147.793 Y49.93 E11.42989
G1 X148.619 Y50.395 E11.44172
G1 X149.404 Y50.929 E11.45356
G1 X150.14 Y51.526 E11.46538
G1 X150.645 Y52.001 E11.47402
G1 X151.747 Y53.103 E11.49346
G1 X152.389 Y53.801 E11.50529
G1 X152.969 Y54.551 E11.51712
G1 X153.485 Y55.347 E11.52895
G1 X153.816 Y55.952 E11.53755
G1 X154.52 Y57.334 E11.55689
G1 X154.915 Y58.196 E11.56872
G1 X155.235 Y59.089 E11.58055
G1 X155.479 Y60.005 E11.59238
G1 X155.6 Y60.633 E11.60035
G1 X155.851 Y62.175 E11.61984
G1 X155.964 Y63.116 E11.63166
G1 X155.997 Y63.981 E11.64246
G1 X156 Y105.399 E12.15904
G1 X155.96 Y106.347 E12.17088
G1 X155.84 Y107.288 E12.18271
G1 X155.642 Y108.215 E12.19453
G1 X155.366 Y109.123 E12.20637
G1 X155.015 Y110.004 E12.2182
G1 X154.591 Y110.852 E12.23002
G1 X154.525 Y110.961 E12.23161
G1 X154.757 Y111.37 E12.23748
G1 X155.155 Y112.232 E12.24932
G1 X155.478 Y113.123 E12.26114
G1 X155.725 Y114.039 E12.27297
G1 X155.894 Y114.972 E12.2848
G1 X155.984 Y115.916 E12.29663
G1 X156 Y116.51 E12.30404
G1 X156 Y135.999 E12.54712
G1 X155.96 Y136.947 E12.55895
G1 X155.861 Y137.764 E12.56921
G1 X155.618 Y139.294 E12.58854
G1 X155.43 Y140.223 E12.60036
G1 X155.164 Y141.134 E12.6122
G1 X154.822 Y142.019 E12.62403
G1 X154.549 Y142.6 E12.63204
G1 X153.844 Y143.996 E12.65154
G1 X153.381 Y144.824 E12.66337
G1 X152.85 Y145.61 E12.6752
G1 X152.255 Y146.349 E12.68704
G1 X151.782 Y146.855 E12.69568
G1 X150.681 Y147.963 E12.71516
G1 X149.985 Y148.607 E12.72699
G1 X149.237 Y149.19 E12.73882
G1 X148.442 Y149.708 E12.75065
G1 X147.834 Y150.044 E12.75931
G1 X146.428 Y150.765 E12.77902
G1 X145.567 Y151.161 E12.79084
G1 X144.675 Y151.484 E12.80267
G1 X143.759 Y151.731 E12.81451
G1 X143.063 Y151.864 E12.82335
G1 X141.517 Y152.11 E12.84287
G1 X140.575 Y152.22 E12.8547
G1 X139.749 Y152.25 E12.86501
G1 X60.249 Y152.25 E13.85658
G1 X59.301 Y152.21 E13.86841
G1 X58.479 Y152.11 E13.87874
G1 X56.935 Y151.864 E13.89824
G1 X56.005 Y151.675 E13.91008
G1 X55.095 Y151.409 E13.9219
G1 X54.21 Y151.067 E13.93373
G1 X53.602 Y150.78 E13.94212
G1 X52.207 Y150.07 E13.96164
G1 X51.381 Y149.605 E13.97347
G1 X50.596 Y149.071 E13.98531
G1 X49.86 Y148.474 E13.99713
G1 X49.355 Y147.999 E14.00578
G1 X48.252 Y146.896 E14.02523
G1 X47.61 Y146.198 E14.03706
G1 X47.03 Y145.448 E14.04888
G1 X46.514 Y144.652 E14.06072
G1 X46.183 Y144.047 E14.06932
G1 X45.478 Y142.663 E14.08869
G1 X45.083 Y141.801 E14.10052
G1 X44.763 Y140.908 E14.11235
G1 X44.519 Y139.992 E14.12417
G1 X44.396 Y139.353 E14.13229
G1 X44.146 Y137.807 E14.15182
G1 X44.034 Y136.865 E14.16365
G1 X44.002 Y136.011 E14.17431
G1 X44 Y64.289 E15.06887
G1 X44 Y64.001 E15.07246
G1 X44.04 Y63.054 E15.08428
G1 X44.139 Y62.24 E15.09451
G1 X44.382 Y60.707 E15.11387
G1 X44.57 Y59.777 E15.1257
G1 X44.835 Y58.866 E15.13754
G1 X45.176 Y57.982 E15.14935
G1 X45.457 Y57.385 E15.15758
G1 X46.164 Y55.989 E15.1771
G1 X46.628 Y55.162 E15.18893
G1 X47.159 Y54.377 E15.20075
G1 X47.755 Y53.639 E15.21258
G1 X48.223 Y53.139 E15.22112
G1 X49.324 Y52.032 E15.2406
G0 X49.537 Y52.243
G1 X50.225 Y51.609 E15.25226
G1 X50.964 Y51.035 E15.26394
G1 X51.75 Y50.527 E15.27561
G1 X52.31 Y50.219 E15.28358
G1 X53.714 Y49.5 E15.30325
G1 X54.564 Y49.109 E15.31492
G1 X55.445 Y48.793 E15.3266
G1 X56.349 Y48.552 E15.33827
G1 X56.984 Y48.432 E15.34633
G1 X58.53 Y48.186 E15.36585
G1 X59.46 Y48.079 E15.37753
G1 X60.251 Y48.05 E15.3874
G1 X139.615 Y48.05 E16.37727
G1 X140.55 Y48.09 E16.38894
G1 X141.201 Y48.166 E16.39712
G1 X142.881 Y48.412 E16.4183
G1 X143.801 Y48.587 E16.42998
G1 X144.702 Y48.839 E16.44165
G1 X145.578 Y49.168 E16.45332
G1 X146.262 Y49.487 E16.46273
G1 X147.657 Y50.197 E16.48225
G1 X148.472 Y50.657 E16.49393
G1 X149.245 Y51.185 E16.5056
G1 X149.97 Y51.776 E16.51727
G1 X150.433 Y52.213 E16.52521
G1 X151.535 Y53.315 E16.54465
G1 X152.168 Y54.005 E16.55633
G1 X152.739 Y54.745 E16.56798
G1 X153.246 Y55.532 E16.57966
G1 X153.549 Y56.088 E16.58756
G1 X154.253 Y57.47 E16.6069
G1 X154.642 Y58.321 E16.61857
G1 X154.956 Y59.202 E16.63024
G1 X155.195 Y60.107 E16.64191
G1 X155.304 Y60.681 E16.6492
G1 X155.555 Y62.223 E16.66869
G1 X155.665 Y63.152 E16.68035
G1 X155.697 Y63.981 E16.6907
G1 X155.7 Y105.399 E17.20729
G1 X155.66 Y106.334 E17.21896
G1 X155.54 Y107.262 E17.23063
G1 X155.342 Y108.177 E17.24231
G1 X155.066 Y109.071 E17.25398
G1 X154.715 Y109.938 E17.26565
G1 X154.291 Y110.772 E17.27731
G1 X154.179 Y110.952 E17.27996
G1 X154.564 Y111.653 E17.28993
G1 X154.943 Y112.509 E17.30161
G1 X155.247 Y113.394 E17.31328
G1 X155.475 Y114.301 E17.32495
G1 X155.624 Y115.225 E17.33662
G1 X155.7 Y116.51 E17.35267
G1 X155.7 Y135.999 E17.59575
G1 X155.66 Y136.934 E17.60742
G1 X155.564 Y137.717 E17.61726
G1 X155.321 Y139.247 E17.63659
G1 X155.135 Y140.164 E17.64826
G1 X154.872 Y141.061 E17.65991
G1 X154.532 Y141.933 E17.67159
G1 X154.281 Y142.465 E17.67893
G1 X153.576 Y143.861 E17.69843
G1 X153.119 Y144.678 E17.71011
G1 X152.594 Y145.452 E17.72177
G1 X152.005 Y146.179 E17.73344
G1 X151.569 Y146.643 E17.74138
G1 X150.468 Y147.751 E17.76087
G1 X149.781 Y148.386 E17.77253
G1 X149.042 Y148.96 E17.7842
G1 X148.257 Y149.469 E17.79587
G1 X147.698 Y149.777 E17.80383
G1 X146.292 Y150.498 E17.82354
G1 X145.441 Y150.889 E17.83522
G1 X144.561 Y151.206 E17.84689
G1 X143.657 Y151.446 E17.85856
G1 X143.016 Y151.568 E17.86669
G1 X141.47 Y151.814 E17.88622
G1 X140.54 Y151.921 E17.89789
G1 X139.749 Y151.95 E17.90777
G1 X60.249 Y151.95 E18.89933
G1 X59.314 Y151.91 E18.91101
G1 X58.526 Y151.814 E18.92091
G1 X56.982 Y151.568 E18.94041
G1 X56.065 Y151.381 E18.95208
G1 X55.167 Y151.117 E18.96376
G1 X54.296 Y150.777 E18.97542
G1 X53.738 Y150.513 E18.98312
G1 X52.343 Y149.803 E19.00264
G1 X51.528 Y149.343 E19.01431
G1 X50.755 Y148.815 E19.02599
G1 X50.03 Y148.224 E19.03765
G1 X49.567 Y147.787 E19.0456
G1 X48.464 Y146.684 E19.06505
G1 X47.831 Y145.994 E19.07673
G1 X47.26 Y145.254 E19.08839
G1 X46.753 Y144.467 E19.10006
G1 X46.45 Y143.911 E19.10796
G1 X45.745 Y142.527 E19.12733
G1 X45.356 Y141.676 E19.13901
G1 X45.042 Y140.795 E19.15067
G1 X44.803 Y139.89 E19.16235
G1 X44.692 Y139.305 E19.16977
G1 X44.442 Y137.759 E19.18931
G1 X44.333 Y136.83 E19.20097
G1 X44.302 Y136.011 E19.21119
G1 X44.3 Y64.289 E20.10575
G1 X44.3 Y64.001 E20.10934
G1 X44.34 Y63.066 E20.12101
G1 X44.435 Y62.287 E20.1308
G1 X44.678 Y60.754 E20.15016
G1 X44.864 Y59.837 E20.16183
G1 X45.127 Y58.939 E20.1735
G1 X45.467 Y58.067 E20.18518
G1 X45.724 Y57.521 E20.1927
G1 X46.431 Y56.125 E20.21222
G1 X46.889 Y55.309 E20.22389
G1 X47.415 Y54.535 E20.23556
G1 X48.006 Y53.809 E20.24724
G1 X48.436 Y53.35 E20.25508
G1 X49.537 Y52.243 E20.27456
G0 X49.75 Y52.455
G1 X50.428 Y51.829 E20.28607
G1 X51.158 Y51.265 E20.29757
G1 X51.935 Y50.766 E20.30909
G1 X52.447 Y50.486 E20.31637
G1 X53.851 Y49.767 E20.33604
G1 X54.689 Y49.382 E20.34755
G1 X55.558 Y49.071 E20.35906
G1 X56.451 Y48.837 E20.37057
G1 X57.031 Y48.728 E20.37793
G1 X58.577 Y48.482 E20.39746
G1 X59.494 Y48.377 E20.40897
G1 X60.251 Y48.35 E20.41842
G1 X139.615 Y48.35 E21.40829
G1 X140.537 Y48.39 E21.4198
G1 X141.158 Y48.462 E21.4276
G1 X142.838 Y48.708 E21.44877
G1 X143.744 Y48.882 E21.46028
G1 X144.632 Y49.132 E21.47179
G1 X145.495 Y49.459 E21.4833
G1 X146.126 Y49.755 E21.49199
G1 X147.521 Y50.465 E21.51151
G1 X148.324 Y50.918 E21.52301
G1 X149.085 Y51.44 E21.53452
G1 X149.799 Y52.026 E21.54604
G1 X150.221 Y52.425 E21.55329
G1 X151.323 Y53.527 E21.57273
G1 X151.946 Y54.208 E21.58424
G1 X152.509 Y54.939 E21.59575
G1 X153.006 Y55.717 E21.60726
G1 X153.282 Y56.224 E21.61446
G1 X153.986 Y57.606 E21.6338
G1 X154.369 Y58.446 E21.64532
G1 X154.677 Y59.315 E21.65682
G1 X154.91 Y60.208 E21.66833
G1 X155.008 Y60.729 E21.67494
G1 X155.259 Y62.271 E21.69443
G1 X155.367 Y63.187 E21.70593
G1 X155.397 Y63.981 E21.71584
G1 X155.4 Y105.399 E22.23243
G1 X155.36 Y106.321 E22.24394
G1 X155.241 Y107.236 E22.25545
G1 X155.042 Y108.137 E22.26696
G1 X154.767 Y109.018 E22.27847
G1 X154.416 Y109.872 E22.28998
G1 X153.992 Y110.692 E22.3015
G1 X153.827 Y110.953 E22.30535
G1 X153.935 Y111.12 E22.30783
G1 X154.367 Y111.935 E22.31934
G1 X154.727 Y112.785 E22.33085
G1 X155.012 Y113.663 E22.34236
G1 X155.22 Y114.562 E22.35387
G1 X155.35 Y115.476 E22.36539
